X:3160
T: Joskvarnleken
R: Vals
S: Utlärd av Perjos Lars Halvarsson
Z: Karin Arén
M: 3/4
L: 1/8
K: A
va3 b ag | a2 g2 eg | g2 f2 d2 | e2 (c2 A2) | A6 | 
va3 b ag | a2 g2 eg | g2 f2 d2 | e6 |1 e4 e2 :|2 z4 cd |: 
vd3 e dc | B2 G2 BG | A2 F2 Ad | B2 (GA) Bc |
vd3 e dc | B2 G2 Bd | A2 uF2 uF2 |1 vG2 z2 (Bc) :|2 vG2 z4 |]
(:musicend:)




(:music:)
